X:120
T:Shrewsbury Quarry. JBs.120
T:La Belle Catherine,aka. JBs. 120
S:Jas.Blackshaw MS, 1837, N.Shropshire
A:North Shropshire
Z:T. Weatherall 2006
M:2/4
L:1/16
Q:1/4=100
R:Country Dance
K:F
c2|f2f2 g2fg|a2f2f2e2|d2g2g2f2|f2e2d2c2|!
f2f2 g2fg|a2a2 a2ga|a2g2f2e2|f4f2:|!
|:B2|A2c2 cdcB|A2c2 c2de|f3d g3e|f2a2 câ€™3c|!
f2f2 g2fg|a2a2 a2ga|b2g2 f2e2|f4f2:|

